src/images/circuits/hungarian.svg

<svg width="25" height="28" viewBox="0 0 25 28" fill="none" xmlns="http://www.w3.org/2000/svg">
<path d="M24.0476 10.2742C24.5098 10.6206 24.2884 13.981 24.1199 15.6179C24.0959 17.2788 24.0479 20.6728 24.0479 20.9616C24.0479 21.3141 22.9472 21.3913 22.2901 21.2605C22.2583 21.2542 22.2262 21.2501 22.1937 21.2493L19.2095 21.1783C16.83 21.1216 16.8025 22.3566 17.0974 23.0174C17.1089 23.0434 17.1181 23.0702 17.1305 23.0958C17.3504 23.5502 18.993 23.4893 20.8536 23.4203L20.9426 23.417C22.8925 23.3448 23.3258 24.2113 23.398 24.9335C23.4702 25.6557 22.6036 26.9555 21.3037 26.8833C20.2638 26.8256 10.8565 26.763 6.28287 26.7389L1.28141 26.5089C0.826229 26.488 0.634171 25.9195 0.984241 25.6278C1.89058 24.8726 2.9542 23.9918 3.32192 23.7058C3.97186 23.2003 9.46025 23.7058 10.3991 23.6336C11.3379 23.5614 12.4933 22.406 12.2767 21.756C12.1133 21.266 9.97049 20.2245 8.73692 19.683C8.60044 19.6231 8.49744 19.5079 8.45539 19.3649L6.71605 13.4512C6.35498 12.2235 6.28276 7.81839 6.13833 7.02402C5.9939 6.22965 2.45512 4.42426 1.80518 3.77432C1.15524 3.12438 1.66093 1.75313 2.52752 1.17541C3.18501 0.737078 7.01235 1.21769 9.13051 1.55637C9.33088 1.58841 9.4897 1.73946 9.53468 1.93733L9.78374 3.03274C9.80807 3.13973 9.86623 3.23536 9.95092 3.30512C11.0057 4.17406 13.0055 5.70844 13.5042 5.65303C13.9405 5.60455 15.1533 4.87429 15.973 4.34179C16.2059 4.19055 16.5181 4.25153 16.672 4.48266C17.4197 5.60616 18.6509 7.46169 19.2093 8.32464C20.0036 9.55231 23.47 9.84117 24.0476 10.2742Z" stroke="#FF0000"/>
</svg>

<svg width="25" height="28" fill="none" xmlns="http://www.w3.org/2000/svg"><path d="M24.048 10.274c.462.347.24 3.707.072 5.344-.024 1.66-.072 5.055-.072 5.344 0 .352-1.1.43-1.758.299a.567.567 0 0 0-.096-.012l-2.985-.07c-2.379-.057-2.407 1.178-2.112 1.838.012.026.021.053.034.079.22.454 1.862.393 3.723.324l.089-.003c1.95-.072 2.383.794 2.455 1.516.072.723-.794 2.023-2.094 1.95-1.04-.057-10.447-.12-15.021-.144l-5.002-.23a.499.499 0 0 1-.297-.881c.907-.755 1.97-1.636 2.338-1.922.65-.506 6.138 0 7.077-.072.939-.073 2.094-1.228 1.878-1.878-.164-.49-2.307-1.532-3.54-2.073a.502.502 0 0 1-.282-.318L6.716 13.45c-.361-1.228-.433-5.633-.578-6.427-.144-.794-3.683-2.6-4.333-3.25-.65-.65-.144-2.02.723-2.599.657-.438 4.484.043 6.603.381.2.032.359.183.404.381l.249 1.096a.493.493 0 0 0 .167.272c1.055.87 3.054 2.403 3.553 2.348.437-.048 1.65-.779 2.469-1.311a.507.507 0 0 1 .699.14 490.158 490.158 0 0 1 2.537 3.843c.795 1.227 4.261 1.516 4.839 1.95Z" stroke="red"/></svg>
